evolvere-2-blue-mono/apps/22/mpv.svg

<?xml version="1.0" encoding="UTF-8" standalone="no"?>
<!-- Created with Inkscape (http://www.inkscape.org/) -->

<svg
   xmlns:dc="http://purl.org/dc/elements/1.1/"
   xmlns:cc="http://creativecommons.org/ns#"
   xmlns:rdf="http://www.w3.org/1999/02/22-rdf-syntax-ns#"
   xmlns:svg="http://www.w3.org/2000/svg"
   xmlns="http://www.w3.org/2000/svg"
   xmlns:sodipodi="http://sodipodi.sourceforge.net/DTD/sodipodi-0.dtd"
   xmlns:inkscape="http://www.inkscape.org/namespaces/inkscape"
   version="1.1"
   width="22"
   height="22"
   id="svg2"
   inkscape:version="0.48.3.1 r9886"
   sodipodi:docname="mpv.svg">
  <sodipodi:namedview
     pagecolor="#ffffff"
     bordercolor="#666666"
     borderopacity="1"
     objecttolerance="10"
     gridtolerance="10"
     guidetolerance="10"
     inkscape:pageopacity="0"
     inkscape:pageshadow="2"
     inkscape:window-width="1920"
     inkscape:window-height="1023"
     id="namedview6"
     showgrid="true"
     inkscape:zoom="29.5"
     inkscape:cx="13.19422"
     inkscape:cy="12.101878"
     inkscape:window-x="-10"
     inkscape:window-y="35"
     inkscape:window-maximized="1"
     inkscape:current-layer="svg2"
     inkscape:snap-global="true">
    <inkscape:grid
       type="xygrid"
       id="grid2982"
       empspacing="5"
       visible="true"
       enabled="true"
       snapvisiblegridlinesonly="true" />
  </sodipodi:namedview>
  <defs
     id="defs4" />
  <metadata
     id="metadata7">
    <rdf:RDF>
      <cc:Work
         rdf:about="">
        <dc:format>image/svg+xml</dc:format>
        <dc:type
           rdf:resource="http://purl.org/dc/dcmitype/StillImage" />
        <dc:title />
      </cc:Work>
    </rdf:RDF>
  </metadata>
  <path
     style="color:#000000;fill:#27303a;fill-opacity:0.753280819999999968;fill-rule:nonzero;stroke:none;stroke-width:1;marker:none;visibility:visible;display:inline;overflow:visible;enable-background:accumulate"
     d="m 11,3 c -4.4262096,0 -8,3.5737904 -8,8 0,4.426209 3.5737904,8 8,8 4.426209,0 8,-3.573791 8,-8 0,-4.4262096 -3.573791,-8 -8,-8 z m 0,1.9375 c 3.348794,0 6.0625,2.7137065 6.0625,6.0625 0,3.348794 -2.713706,6.0625 -6.0625,6.0625 C 7.6512065,17.0625 4.9375,14.348794 4.9375,11 4.9375,7.6512065 7.6512065,4.9375 11,4.9375 z M 9,8 9,14 15,11 9,8 z"
     id="path3780"
     inkscape:connector-curvature="0" />
  <path
     style="font-size:medium;font-style:normal;font-variant:normal;font-weight:normal;font-stretch:normal;text-indent:0;text-align:start;text-decoration:none;line-height:normal;letter-spacing:normal;word-spacing:normal;text-transform:none;direction:ltr;block-progression:tb;writing-mode:lr-tb;text-anchor:start;baseline-shift:baseline;color:#000000;fill:#f1f3f5;fill-opacity:0.90288714000000003;fill-rule:nonzero;stroke:none;stroke-width:2;marker:none;visibility:visible;display:inline;overflow:visible;enable-background:accumulate;font-family:Sans;-inkscape-font-specification:Sans"
     d="m 11,1.84375 c -5.0565677,0 -9.15625,4.0996823 -9.15625,9.15625 0,5.056567 4.0996823,9.15625 9.15625,9.15625 5.056567,0 9.15625,-4.099683 9.15625,-9.15625 C 20.15625,5.9434323 16.056567,1.84375 11,1.84375 z M 11,3 c 4.426209,0 8,3.5737904 8,8 0,4.426209 -3.573791,8 -8,8 C 6.5737904,19 3,15.426209 3,11 3,6.5737904 6.5737904,3 11,3 z m -3,3.15625 0,9.6875 1.53125,-0.78125 6,-3 1.5,-0.75 C 17.03655,11.208898 17.0625,11.104911 17.0625,11 c 0,-0.104911 -0.02598,-0.208898 -0.03125,-0.3125 l -1.5,-0.75 -6,-3 L 8,6.15625 z M 9,8 15,11 9,14 9,8 z"
     id="path3025"
     inkscape:connector-curvature="0" />
</svg>

<?xml version="1.0" encoding="UTF-8"?>
<!-- Created with Inkscape (http://www.inkscape.org/) -->
<svg width="22" height="22" version="1.1" xml:space="preserve" xmlns="http://www.w3.org/2000/svg" xmlns:cc="http://creativecommons.org/ns#" xmlns:dc="http://purl.org/dc/elements/1.1/" xmlns:rdf="http://www.w3.org/1999/02/22-rdf-syntax-ns#"><defs><style id="current-color-scheme" type="text/css">.ColorScheme-Text {color:#090d11;}.ColorScheme-Background{color:#ffffff;}</style></defs><metadata><rdf:RDF><cc:Work rdf:about=""><dc:format>image/svg+xml</dc:format><dc:type rdf:resource="http://purl.org/dc/dcmitype/StillImage"/></cc:Work></rdf:RDF></metadata><path id="h" class="ColorScheme-Background" d="m11 1.8438c-5.0566 0-9.1562 4.0997-9.1562 9.1562 0 5.0566 4.0997 9.1562 9.1562 9.1562 5.0566 0 9.1562-4.0997 9.1562-9.1562 0-5.0566-4.0997-9.1562-9.1562-9.1562zm0 1.1562c4.4262 0 8 3.5738 8 8s-3.5738 8-8 8-8-3.5738-8-8 3.5738-8 8-8zm-3 3.1562v9.6875l1.5312-0.78125 7.5-3.75c0.0053-0.1036 0.03125-0.20759 0.03125-0.3125s-0.02598-0.2089-0.03125-0.3125l-7.5-3.75zm1 1.8438 6 3-6 3z" style="fill-opacity:.5;fill:currentColor"/><path id="e" class="ColorScheme-Text" d="m11 3c-4.4262 0-8 3.5738-8 8s3.5738 8 8 8 8-3.5738 8-8-3.5738-8-8-8zm0 1.9375c3.3488 0 6.0625 2.7137 6.0625 6.0625s-2.7137 6.0625-6.0625 6.0625-6.0625-2.7137-6.0625-6.0625 2.7137-6.0625 6.0625-6.0625zm-2 3.0625v6l6-3z" style="fill-opacity:.75;fill:currentColor"/></svg>
